packages/core/src/svgs/busd.svg

<svg width="24" height="24" viewBox="0 0 24 24" fill="none" xmlns="http://www.w3.org/2000/svg">
<g clip-path="url(#clip0_31_7616)">
<path d="M0 0H24V24H0V0Z" fill="#F0B90B"/>
<path d="M14.3323 7.75181C14.3746 7.70949 14.432 7.68572 14.4919 7.68572C14.5518 7.68572 14.6092 7.70949 14.6516 7.75181L16.1181 9.21324C16.1392 9.23415 16.1559 9.25901 16.1673 9.28639C16.1787 9.31377 16.1846 9.34313 16.1846 9.37279C16.1847 9.40245 16.1788 9.43183 16.1675 9.45924C16.1562 9.48665 16.1395 9.51156 16.1186 9.53253L9.51513 16.1454C9.47289 16.1878 9.41554 16.2117 9.35567 16.2119C9.2958 16.2121 9.23831 16.1884 9.19585 16.1462L7.72927 14.6844C7.70827 14.6634 7.6916 14.6386 7.68023 14.6112C7.66886 14.5838 7.66301 14.5544 7.66301 14.5247C7.66301 14.4951 7.66886 14.4657 7.68023 14.4383C7.6916 14.4109 7.70827 14.386 7.72927 14.3651L14.3323 7.75224V7.75181ZM17.0048 10.397C17.0472 10.3546 17.1046 10.3309 17.1645 10.3309C17.2244 10.3309 17.2818 10.3546 17.3241 10.397L18.7907 11.8584C18.8117 11.8793 18.8284 11.9042 18.8398 11.9315C18.8513 11.9589 18.8571 11.9883 18.8572 12.0179C18.8572 12.0476 18.8514 12.077 18.8401 12.1044C18.8287 12.1318 18.8121 12.1567 18.7911 12.1777L12.1886 18.7905C12.1463 18.8329 12.0889 18.8567 12.029 18.8568C11.9691 18.8569 11.9117 18.8332 11.8693 18.791L10.4023 17.3295C10.3813 17.3086 10.3646 17.2837 10.3532 17.2563C10.3419 17.2289 10.336 17.1995 10.336 17.1699C10.336 17.1402 10.3419 17.1109 10.3532 17.0835C10.3646 17.0561 10.3813 17.0312 10.4023 17.0102L17.0053 10.3974L17.0048 10.397ZM13.5986 6.98981C13.6195 6.96884 13.6362 6.94394 13.6475 6.91653C13.6588 6.88912 13.6647 6.85974 13.6646 6.83008C13.6646 6.80042 13.6587 6.77106 13.6473 6.74368C13.6359 6.7163 13.6192 6.69144 13.5981 6.67053L12.1316 5.20867C12.0892 5.16635 12.0318 5.14258 11.9719 5.14258C11.912 5.14258 11.8546 5.16635 11.8123 5.20867L7.78585 9.2411C7.74368 9.28336 7.72001 9.34062 7.72001 9.40031C7.72001 9.46001 7.74368 9.51726 7.78585 9.55953L9.24513 11.0282C9.26612 11.0493 9.29106 11.0661 9.31853 11.0775C9.346 11.0889 9.37546 11.0948 9.4052 11.0948C9.43495 11.0948 9.4644 11.0889 9.49187 11.0775C9.51934 11.0661 9.54429 11.0493 9.56527 11.0282L13.5981 6.98938L13.5986 6.98981ZM8.41799 12.1777C8.46002 12.1354 8.48361 12.0783 8.48361 12.0187C8.48361 11.9591 8.46002 11.9019 8.41799 11.8597L6.95827 10.391C6.93732 10.3699 6.91243 10.3532 6.88501 10.3418C6.8576 10.3304 6.8282 10.3245 6.79851 10.3244C6.76881 10.3244 6.7394 10.3302 6.71195 10.3416C6.68451 10.3529 6.65957 10.3695 6.63856 10.3905L5.20885 11.822C5.18784 11.8429 5.17117 11.8678 5.1598 11.8952C5.14843 11.9226 5.14258 11.9519 5.14258 11.9816C5.14258 12.0113 5.14843 12.0406 5.1598 12.068C5.17117 12.0954 5.18784 12.1203 5.20885 12.1412L6.67585 13.6027C6.76413 13.691 6.90727 13.691 6.99513 13.6027L8.41799 12.1777Z" fill="white"/>
</g>
<defs>
<clipPath id="clip0_31_7616">
<rect width="24" height="24" fill="white"/>
</clipPath>
</defs>
</svg>

<svg xmlns="http://www.w3.org/2000/svg" width="24" height="24" fill="none" viewBox="0 0 24 24"><g clip-path="url(#a)"><path fill="#F0B90B" d="M0 0h24v24H0z"/><path fill="#fff" d="M14.332 7.752a.226.226 0 0 1 .32 0l1.466 1.461a.224.224 0 0 1 0 .32l-6.603 6.612a.226.226 0 0 1-.32.001L7.73 14.684a.226.226 0 0 1 0-.319zm2.673 2.645a.226.226 0 0 1 .32 0l1.466 1.461a.226.226 0 0 1 0 .32L12.19 18.79a.226.226 0 0 1-.32 0l-1.467-1.462a.226.226 0 0 1 0-.319zM13.599 6.99a.226.226 0 0 0 0-.32L12.131 5.21a.226.226 0 0 0-.32 0L7.786 9.24a.225.225 0 0 0 0 .319l1.46 1.468a.226.226 0 0 0 .32 0zm-5.181 5.188a.226.226 0 0 0 0-.318l-1.46-1.469a.225.225 0 0 0-.32 0l-1.43 1.431a.225.225 0 0 0 0 .32l1.468 1.46a.226.226 0 0 0 .32 0z"/></g><defs><clipPath id="a"><path fill="#fff" d="M0 0h24v24H0z"/></clipPath></defs></svg>
